src/lib/packages/icons/src/assets/filled/briefcase.svg

<svg width="24" height="24" viewBox="0 0 24 24" fill="none" xmlns="http://www.w3.org/2000/svg">
<path d="M18 6H16.75V4.5C16.75 3.54 15.96 2.75 15 2.75H9C8.03 2.75 7.25 3.54 7.25 4.5V6H6C4 6 3 7 3 9V9.95996C3 10.89 3.55 11.71 4.41 12.04C5.79 12.59 7.21999 13.0101 8.64999 13.3101C8.75999 13.3301 8.86 13.25 8.92 13.16C9.64 12.08 10.8 11.4301 12 11.4301C13.21 11.4301 14.36 12.08 15.09 13.16C15.15 13.25 15.25 13.3301 15.36 13.3101C16.79 13.0101 18.21 12.59 19.59 12.05C20.45 11.71 21 10.89 21 9.95996V9C21 7 20 6 18 6ZM8.75 6V4.5C8.75 4.36 8.86 4.25 9 4.25H15C15.14 4.25 15.25 4.36 15.25 4.5V6H8.75ZM15.66 14.78C15.55 14.8 15.43 14.8101 15.32 14.8101C14.74 14.8101 14.19 14.51 13.84 13.99C13.4 13.33 12.71 12.9301 12 12.9301C11.3 12.9301 10.61 13.33 10.17 13.99C9.75 14.61 9.04001 14.92 8.35001 14.78C6.83001 14.47 5.32 14.0199 3.86 13.4399C3.55 13.3199 3.26 13.16 3 12.95V18C3 20 4 21 6 21H18C20 21 21 20 21 18V12.96C20.74 13.16 20.45 13.3199 20.14 13.4399C18.68 14.0199 17.17 14.47 15.66 14.78ZM12.002 16C11.451 16 11 15.552 11 15C11 14.448 11.443 14 11.994 14H12.002C12.553 14 13 14.448 13 15C13 15.552 12.553 16 12.002 16Z" fill="currentColor"/>
</svg>

<svg xmlns="http://www.w3.org/2000/svg" width="24" height="24" fill="none"><path fill="currentColor" d="M18 6h-1.25V4.5c0-.96-.79-1.75-1.75-1.75H9c-.97 0-1.75.79-1.75 1.75V6H6C4 6 3 7 3 9v.96c0 .93.55 1.75 1.41 2.08 1.38.55 2.81.97 4.24 1.27.11.02.21-.06.27-.15.72-1.08 1.88-1.73 3.08-1.73 1.21 0 2.36.65 3.09 1.73.06.09.16.17.27.15 1.43-.3 2.85-.72 4.23-1.26.86-.34 1.41-1.16 1.41-2.09V9c0-2-1-3-3-3ZM8.75 6V4.5c0-.14.11-.25.25-.25h6c.14 0 .25.11.25.25V6h-6.5Zm6.91 8.78c-.11.02-.23.03-.34.03-.58 0-1.13-.3-1.48-.82-.44-.66-1.13-1.06-1.84-1.06-.7 0-1.39.4-1.83 1.06-.42.62-1.13.93-1.82.79a26.58 26.58 0 0 1-4.49-1.34c-.31-.12-.6-.28-.86-.49V18c0 2 1 3 3 3h12c2 0 3-1 3-3v-5.04c-.26.2-.55.36-.86.48-1.46.58-2.97 1.03-4.48 1.34ZM12.002 16A1.003 1.003 0 0 1 11 15c0-.552.443-1 .994-1h.008a1 1 0 0 1 0 2Z"/></svg>
